X:1
T:Polska efter Johannes Nord
R:Polska
C:Johannes Nord
O:Hyllinge, Skåne
Z: Pelle Westlin
M:3/4
L:1/8
K:A
|:E/2D/2C/2D/2 EA Ac|B/2A/2G/2A/2 B/2A/2G/2F/2 E2|Ed d/2B/2d/2B/2 cA|1 A/2G/2A/2c/2 B/2A/2G/2F/2 FE:|2 d/2B/2G/2E/2 B2A2:|]
|:G/2E/2G/2B/2 G/2E/2G/2B/2 c/2B/2A/2G/2|A/2E/2A/2c/2 A/2E/2A/2c/2 d/2c/2B/2A/2|G/2E/2G/2B/2 G/2E/2G/2B/2 c/2B/2A/2G/2|A/2E/2A/2c/2 A/2E/2A/2c/2 d/2c/2B/2A/2|
|dd/2B/2 cc/2A/2 dB|A/2G/2F/2E/2 EA A2:|]

